app/assets/images/heroicons/micro/calendar-days.svg

<svg width="16" height="16" viewBox="0 0 16 16" fill="none" xmlns="http://www.w3.org/2000/svg">
<path d="M5.75 7.5C5.33579 7.5 5 7.83579 5 8.25C5 8.66421 5.33579 9 5.75 9C6.16421 9 6.5 8.66421 6.5 8.25C6.5 7.83579 6.16421 7.5 5.75 7.5Z" fill="#0F172A"/>
<path d="M5 10.25C5 9.83579 5.33579 9.5 5.75 9.5C6.16421 9.5 6.5 9.83579 6.5 10.25C6.5 10.6642 6.16421 11 5.75 11C5.33579 11 5 10.6642 5 10.25Z" fill="#0F172A"/>
<path d="M10.25 7.5C9.83579 7.5 9.5 7.83579 9.5 8.25C9.5 8.66421 9.83579 9 10.25 9C10.6642 9 11 8.66421 11 8.25C11 7.83579 10.6642 7.5 10.25 7.5Z" fill="#0F172A"/>
<path d="M7.25 8.25C7.25 7.83579 7.58579 7.5 8 7.5C8.41421 7.5 8.75 7.83579 8.75 8.25C8.75 8.66421 8.41421 9 8 9C7.58579 9 7.25 8.66421 7.25 8.25Z" fill="#0F172A"/>
<path d="M8 9.5C7.58579 9.5 7.25 9.83579 7.25 10.25C7.25 10.6642 7.58579 11 8 11C8.41421 11 8.75 10.6642 8.75 10.25C8.75 9.83579 8.41421 9.5 8 9.5Z" fill="#0F172A"/>
<path fill-rule="evenodd" clip-rule="evenodd" d="M4.75 1C4.33579 1 4 1.33579 4 1.75V3C2.89543 3 2 3.89543 2 5V12C2 13.1046 2.89543 14 4 14H12C13.1046 14 14 13.1046 14 12V5C14 3.89543 13.1046 3 12 3V1.75C12 1.33579 11.6642 1 11.25 1C10.8358 1 10.5 1.33579 10.5 1.75V3H5.5V1.75C5.5 1.33579 5.16421 1 4.75 1ZM3.5 7C3.5 6.44772 3.94772 6 4.5 6H11.5C12.0523 6 12.5 6.44772 12.5 7V11.5C12.5 12.0523 12.0523 12.5 11.5 12.5H4.5C3.94772 12.5 3.5 12.0523 3.5 11.5V7Z" fill="#0F172A"/>
</svg>

<svg xmlns="http://www.w3.org/2000/svg" viewBox="0 0 16 16" fill="currentColor" aria-hidden="true" data-slot="icon">
  <path d="M5.75 7.5a.75.75 0 1 0 0 1.5.75.75 0 0 0 0-1.5ZM5 10.25a.75.75 0 1 1 1.5 0 .75.75 0 0 1-1.5 0ZM10.25 7.5a.75.75 0 1 0 0 1.5.75.75 0 0 0 0-1.5ZM7.25 8.25a.75.75 0 1 1 1.5 0 .75.75 0 0 1-1.5 0ZM8 9.5A.75.75 0 1 0 8 11a.75.75 0 0 0 0-1.5Z"/>
  <path fill-rule="evenodd" d="M4.75 1a.75.75 0 0 0-.75.75V3a2 2 0 0 0-2 2v7a2 2 0 0 0 2 2h8a2 2 0 0 0 2-2V5a2 2 0 0 0-2-2V1.75a.75.75 0 0 0-1.5 0V3h-5V1.75A.75.75 0 0 0 4.75 1ZM3.5 7a1 1 0 0 1 1-1h7a1 1 0 0 1 1 1v4.5a1 1 0 0 1-1 1h-7a1 1 0 0 1-1-1V7Z" clip-rule="evenodd"/>
</svg>
